icons/svg/16x16/home/outline.svg

<svg width="16" height="16" fill="none" xmlns="http://www.w3.org/2000/svg">
  <path fill-rule="evenodd" clip-rule="evenodd" d="M12 13h-2V9a2 2 0 00-4 0v4H4V6.414l4-4 4 4V13zm3.707-5.707l-7-7a.997.997 0 00-1.414 0l-7 7a.997.997 0 000 1.414.999.999 0 001.414 0L2 8.414V13c0 1.103.897 2 2 2h8c1.103 0 2-.897 2-2V8.414l.293.293a.997.997 0 001.414 0 .997.997 0 000-1.414z" fill="#000"/>
</svg>

<svg xmlns="http://www.w3.org/2000/svg" width="16" height="16" viewBox="0 0 16 16">
  <path fill-rule="evenodd" d="M12,13 L10,13 L10,9 C10,7.896 9.104,7 8,7 C6.896,7 6,7.896 6,9 L6,13 L4,13 L4,6.414 L8,2.414 L12,6.414 L12,13 Z M15.707,7.293 L8.707,0.293 C8.316,-0.098 7.684,-0.098 7.293,0.293 L0.293,7.293 C-0.098,7.684 -0.098,8.316 0.293,8.707 C0.684,9.098 1.316,9.098 1.707,8.707 L2,8.414 L2,13 C2,14.103 2.897,15 4,15 L12,15 C13.103,15 14,14.103 14,13 L14,8.414 L14.293,8.707 C14.488,8.902 14.744,9 15,9 C15.256,9 15.512,8.902 15.707,8.707 C16.098,8.316 16.098,7.684 15.707,7.293 L15.707,7.293 Z"/>
</svg>
